X: 1
T: Davy Nick Nack
O: Trad
R: hornpipe, march
Z: 1997 by John Chambers <jc:trillian.mit.edu>
M: 4/4
L: 1/8
K: G
   D2 | "G"GFGA B2B2 | GFGA B2B2 |1,3 "D7"dcBc A4   | dcBc A2 :|2,4 "C"dcBc "D7"AcBA | "G"G2B2 G2 :|
|: Bc | "G"d3c  B2d2 | g2g2 d4   |1,3 "D7"dcBc A2A2 | dcBc A2 :|2,4 "C"dcBc "D7"AcBA | "G"G2B2 G2 :|
